!!!OTL: "Liederkraenzchen" AF UNSERN WAIHADAMM
!!!ARE: Europa, Mitteleuropa, Deutschland, Boehmen
!!!SCT: Z1273
!!!YEM: Copyright 1995, estate of Helmut Schaffrath.
**kern
*ICvox
*Ivox
*M6/4
*k[b-e-]
*B-:
{4f
=1
4b-
4cc
4dd
2cc
4b-
=2
2a
2.r}
{4a
=3
4dd
4ee-
4ff
4ff
4een
4gg
=4
2ff
2.r}
{4f
=5
4b-
4cc
4dd
2cc
4b-
=6
2a
2.r}
{4a
=7
4dd
4ee-
4ff
4ff
4een
4gg
=8
2ff
2.r}
{8ff
8ee-
=9
4dd
4ee-
4ff
4dd
4ff
8ee-
8dd
=10
4cc
4cc
8b-
8cc
4a
4f}
{8f
8a
=11
4b-
4ff
8ee-
8dd
2cc
4a
=12
2b-
2.r}
==
!!!AGN: Natur und Welt
!!!ONB: ESAC (Essen Associative Code) Database: ZUCCAL
!!!AMT: compound duple
!!!AIN: vox
!!!EED: Helmut Schaffrath
!!!EEV: 1.0
*-
